assets/Carp streamer/Flat/carp_streamer_flat.svg

<svg width="32" height="32" viewBox="0 0 32 32" fill="none" xmlns="http://www.w3.org/2000/svg">
<path d="M15.4658 9.97546C15.7173 9.8618 15.8291 9.56574 15.7155 9.3142C15.6018 9.06265 15.3057 8.95088 15.0542 9.06454L8.64637 11.96H4.88C4.60386 11.96 4.38 12.1839 4.38 12.46C4.38 12.7361 4.60386 12.96 4.88 12.96H8.77858L15.0536 15.8052C15.305 15.9192 15.6012 15.8078 15.7152 15.5564C15.8292 15.305 15.7178 15.0088 15.4664 14.8948L10.032 12.4308L15.4658 9.97546Z" fill="#533566"/>
<path d="M4.35999 24.48C4.35999 24.2039 4.58384 23.98 4.85999 23.98H8.69276L15.0342 21.1145C15.2857 21.0009 15.5818 21.1127 15.6955 21.3642C15.8091 21.6157 15.6974 21.9118 15.4458 22.0255L10.012 24.4808L15.4464 26.9448C15.6978 27.0588 15.8092 27.355 15.6952 27.6064C15.5812 27.8578 15.285 27.9692 15.0336 27.8552L8.69243 24.98H4.85999C4.58384 24.98 4.35999 24.7561 4.35999 24.48Z" fill="#533566"/>
<path d="M5.97998 7.81221C7.14478 7.40365 7.98 6.29437 7.98 4.99001C7.98 3.33867 6.64133 2 4.99 2C3.33867 2 2 3.33867 2 4.99001C2 6.28688 2.82565 7.3909 3.97998 7.80511V29.49C3.97998 29.77 4.20998 30 4.48998 30H5.47998C5.75998 30 5.98998 29.77 5.97998 29.49V7.81221Z" fill="#F9C23C"/>
<path d="M29.99 9.83V7.08C28.5 7.08 27.29 8.29 27.29 9.78V9.97C27.29 10.26 27.05 10.5 26.76 10.5C25.69 10.5 24.66 10.17 23.79 9.55L23.12 9.08C20.66 7.33 17.46 7.01001 14.71 8.24001L13.19 8.92V16.03L14.71 16.71C17.47 17.94 20.66 17.62 23.12 15.87L23.79 15.4C24.66 14.78 25.7 14.45 26.76 14.45C27.05 14.45 27.29 14.69 27.29 14.98V15.03C27.29 16.52 28.5 17.73 29.99 17.73V14.98C29.99 13.79 29.22 12.78 28.15 12.42C29.22 12.03 29.99 11.02 29.99 9.83Z" fill="#00A6ED"/>
<path d="M17.87 12.39C17.87 10.47 16.71 8.82001 15.04 8.10001C14.93 8.14001 14.81 8.17 14.7 8.22L13.18 8.90001V16.01L14.7 16.69C14.75 16.71 14.79 16.72 14.84 16.74C16.61 16.08 17.87 14.39 17.87 12.39Z" fill="#26EAFC"/>
<path d="M13.24 8.96001C13.24 8.56001 12.92 8.24001 12.52 8.24001C12.13 8.24001 11.81 8.56001 11.8 8.96001V15.94C11.8 16.34 12.12 16.66 12.52 16.66C12.92 16.66 13.24 16.34 13.24 15.94V8.96001Z" fill="#0074BA"/>
<path d="M19.5999 8.87001C19.5999 8.73199 19.488 8.62011 19.35 8.62011C19.212 8.62011 19.1001 8.73199 19.1001 8.87001C19.1001 9.24914 18.9841 9.42609 18.8428 9.64153L18.841 9.64422C18.6824 9.88616 18.5001 10.1664 18.5001 10.7C18.5001 11.2335 18.6824 11.5138 18.841 11.7558L18.8428 11.7585C18.9841 11.9739 19.1001 12.1509 19.1001 12.53C19.1001 12.9164 18.9824 13.0962 18.841 13.3117L18.8402 13.313C18.6825 13.5535 18.5001 13.8316 18.5001 14.36C18.5001 14.8889 18.6827 15.1694 18.8407 15.4115C18.9825 15.6291 19.1001 15.8093 19.1001 16.19C19.1001 16.328 19.212 16.4399 19.35 16.4399C19.488 16.4399 19.5999 16.328 19.5999 16.19C19.5999 15.6611 19.4172 15.3806 19.2593 15.1385C19.1174 14.9209 18.9999 14.7407 18.9999 14.36C18.9999 13.9809 19.1159 13.8039 19.2572 13.5885L19.259 13.5858C19.4176 13.3438 19.5999 13.0635 19.5999 12.53C19.5999 12.0016 19.4175 11.7235 19.2598 11.483L19.259 11.4817C19.1176 11.2662 18.9999 11.0864 18.9999 10.7C18.9999 10.3135 19.1176 10.1338 19.259 9.91829L19.2598 9.91705C19.4175 9.6765 19.5999 9.39839 19.5999 8.87001Z" fill="#0074BA"/>
<path d="M21.7099 9.68001C21.7099 9.54199 21.598 9.43011 21.46 9.43011C21.322 9.43011 21.2101 9.54199 21.2101 9.68001C21.2101 9.95072 21.1303 10.073 21.0266 10.2322L21.0257 10.2335C20.9049 10.4187 20.7601 10.6415 20.7601 11.06C20.7601 11.4776 20.9043 11.7003 21.0245 11.8859L21.0253 11.8872C21.129 12.0474 21.2101 12.1726 21.2101 12.45C21.2101 12.7199 21.1309 12.8423 21.0271 13.0026L21.0252 13.0054C20.904 13.1927 20.7601 13.4175 20.7601 13.84C20.7601 14.2576 20.9043 14.4803 21.0245 14.6659L21.0253 14.6672C21.129 14.8274 21.2101 14.9526 21.2101 15.23C21.2101 15.368 21.322 15.4799 21.46 15.4799C21.598 15.4799 21.7099 15.368 21.7099 15.23C21.7099 14.8075 21.566 14.5827 21.4448 14.3954L21.4429 14.3926C21.3391 14.2323 21.2599 14.1099 21.2599 13.84C21.2599 13.5626 21.341 13.4373 21.4448 13.2771L21.4455 13.2759C21.5657 13.0903 21.7099 12.8676 21.7099 12.45C21.7099 12.0275 21.566 11.8027 21.4448 11.6154L21.4429 11.6126C21.3391 11.4523 21.2599 11.3299 21.2599 11.06C21.2599 10.7893 21.3397 10.667 21.4434 10.5079L21.4443 10.5065C21.5651 10.3213 21.7099 10.0985 21.7099 9.68001Z" fill="#0074BA"/>
<path d="M23.34 10.2001C23.478 10.2001 23.5899 10.312 23.5899 10.45C23.5899 10.6045 23.564 10.7297 23.5207 10.8389C23.4797 10.9423 23.4256 11.0233 23.3855 11.0835L23.3815 11.0895C23.3074 11.2006 23.2599 11.2719 23.2599 11.44C23.2599 11.5355 23.2753 11.5978 23.2938 11.6446C23.3138 11.6949 23.3408 11.7369 23.3829 11.8001L23.3841 11.8019C23.474 11.9368 23.5899 12.1106 23.5899 12.43C23.5899 12.5845 23.564 12.7097 23.5207 12.8189C23.4797 12.9223 23.4256 13.0034 23.3855 13.0635L23.3815 13.0696C23.3074 13.1806 23.2599 13.2519 23.2599 13.42C23.2599 13.5155 23.2753 13.5778 23.2938 13.6246C23.3138 13.6749 23.3408 13.7169 23.3829 13.7801L23.3841 13.7819C23.474 13.9168 23.5899 14.0906 23.5899 14.41C23.5899 14.548 23.478 14.6599 23.34 14.6599C23.202 14.6599 23.0901 14.548 23.0901 14.41C23.0901 14.2419 23.0426 14.1706 22.9685 14.0595L22.9645 14.0535C22.9244 13.9933 22.8703 13.9123 22.8293 13.8089C22.786 13.6997 22.7601 13.5745 22.7601 13.42C22.7601 13.1006 22.876 12.9268 22.9659 12.7919L22.9671 12.7901C23.0092 12.7269 23.0362 12.6849 23.0562 12.6346C23.0747 12.5878 23.0901 12.5255 23.0901 12.43C23.0901 12.2619 23.0426 12.1906 22.9685 12.0796L22.9645 12.0735C22.9244 12.0133 22.8703 11.9323 22.8293 11.8289C22.786 11.7197 22.7601 11.5945 22.7601 11.44C22.7601 11.1206 22.876 10.9468 22.9659 10.8119L22.9671 10.8101C23.0092 10.7469 23.0362 10.7049 23.0562 10.6546C23.0747 10.6078 23.0901 10.5455 23.0901 10.45C23.0901 10.312 23.202 10.2001 23.34 10.2001Z" fill="#0074BA"/>
<path d="M29.99 22.13V19.38C28.5 19.38 27.29 20.59 27.29 22.08V22.27C27.29 22.56 27.05 22.8 26.76 22.8C25.69 22.8 24.66 22.47 23.79 21.85L23.12 21.38C20.66 19.63 17.46 19.31 14.71 20.54L13.19 21.22V28.33L14.71 29.01C17.47 30.24 20.66 29.92 23.12 28.17L23.79 27.7C24.66 27.08 25.7 26.75 26.76 26.75C27.05 26.75 27.29 26.99 27.29 27.28V27.3C27.29 28.79 28.5 30 29.99 30V27.25C29.99 26.06 29.22 25.05 28.15 24.69C29.22 24.33 29.99 23.32 29.99 22.13Z" fill="#F8312F"/>
<path d="M17.87 24.69C17.87 22.77 16.71 21.12 15.04 20.4C14.93 20.44 14.81 20.47 14.7 20.52L13.18 21.2V28.31L14.7 28.99C14.75 29.01 14.79 29.02 14.84 29.04C16.61 28.38 17.87 26.68 17.87 24.69Z" fill="#FF8687"/>
<path d="M14.67 10.74C14.67 10.42 14.93 10.17 15.24 10.17C15.55 10.17 15.81 10.43 15.81 10.74V11.5C15.81 11.82 15.55 12.07 15.24 12.07C14.92 12.07 14.67 11.81 14.67 11.5V10.74Z" fill="#212121"/>
<path d="M14.67 23.04C14.67 22.72 14.93 22.47 15.24 22.47C15.55 22.47 15.81 22.72 15.81 23.04V23.8C15.81 24.12 15.55 24.37 15.24 24.37C14.92 24.37 14.67 24.11 14.67 23.8V23.04Z" fill="#212121"/>
<path d="M13.24 21.26C13.24 20.86 12.92 20.54 12.52 20.54C12.13 20.54 11.81 20.86 11.8 21.26V28.24C11.8 28.64 12.12 28.96 12.52 28.96C12.92 28.96 13.24 28.64 13.24 28.24V21.26Z" fill="#CA0B4A"/>
<path d="M19.1 28.49C19.1 28.63 19.21 28.74 19.35 28.74C19.49 28.74 19.6 28.62 19.6 28.49C19.6 27.96 19.42 27.68 19.26 27.44C19.11 27.22 19 27.04 19 26.66C19 26.28 19.11 26.1 19.26 25.88C19.42 25.64 19.6 25.36 19.6 24.83C19.6 24.3 19.42 24.02 19.26 23.78C19.11 23.56 19 23.38 19 23C19 22.61 19.11 22.44 19.26 22.22C19.42 21.98 19.6 21.7 19.6 21.17C19.6 21.03 19.49 20.92 19.35 20.92C19.21 20.92 19.1 21.03 19.1 21.17C19.1 21.5429 18.9903 21.7147 18.8583 21.9213L18.84 21.95C18.68 22.19 18.5 22.47 18.5 23C18.5 23.53 18.68 23.81 18.84 24.05C18.99 24.27 19.1 24.45 19.1 24.83C19.1 25.21 18.99 25.39 18.84 25.61C18.68 25.85 18.5 26.13 18.5 26.66C18.5 27.19 18.68 27.47 18.84 27.71C18.99 27.93 19.1 28.11 19.1 28.49Z" fill="#CA0B4A"/>
<path d="M21.21 27.52C21.21 27.66 21.32 27.77 21.46 27.77C21.59 27.77 21.71 27.66 21.71 27.53C21.71 27.11 21.56 26.88 21.44 26.7C21.33 26.54 21.25 26.41 21.25 26.14C21.25 25.8828 21.3317 25.7526 21.4259 25.6025L21.44 25.58C21.56 25.4 21.71 25.17 21.71 24.75C21.71 24.33 21.56 24.1 21.44 23.92C21.33 23.76 21.25 23.63 21.25 23.36C21.25 23.1007 21.3272 22.9787 21.418 22.835L21.44 22.8C21.56 22.62 21.71 22.39 21.71 21.97C21.71 21.83 21.6 21.72 21.46 21.72C21.32 21.72 21.21 21.83 21.21 21.97C21.21 22.2194 21.1332 22.3408 21.0427 22.4839L21.02 22.52C20.9 22.7 20.75 22.93 20.75 23.35C20.75 23.77 20.9 24 21.02 24.18C21.13 24.34 21.21 24.47 21.21 24.74C21.21 24.9972 21.1283 25.1274 21.0341 25.2775L21.02 25.3C20.9 25.48 20.75 25.71 20.75 26.13C20.75 26.55 20.9 26.78 21.02 26.96C21.13 27.12 21.21 27.25 21.21 27.52Z" fill="#CA0B4A"/>
<path d="M23.34 26.97C23.2 26.97 23.09 26.86 23.09 26.72C23.09 26.55 23.04 26.47 22.97 26.36L22.9691 26.3585C22.8792 26.2188 22.77 26.0489 22.77 25.73C22.77 25.4111 22.8792 25.2412 22.969 25.1015L22.97 25.1C23.04 24.99 23.09 24.91 23.09 24.74C23.09 24.57 23.04 24.49 22.97 24.38L22.9691 24.3786C22.8792 24.2388 22.77 24.0689 22.77 23.75C22.77 23.4311 22.8792 23.2612 22.969 23.1215L22.97 23.12C23.04 23.01 23.09 22.93 23.09 22.76C23.09 22.62 23.2 22.51 23.34 22.51C23.48 22.51 23.59 22.62 23.59 22.76C23.59 23.0789 23.4808 23.2488 23.3909 23.3885L23.39 23.39L23.3809 23.4043C23.3157 23.5064 23.27 23.5779 23.27 23.75C23.27 23.92 23.32 24 23.39 24.11L23.3909 24.1114C23.4807 24.2512 23.59 24.4211 23.59 24.74C23.59 25.06 23.48 25.24 23.39 25.37C23.32 25.48 23.27 25.56 23.27 25.73C23.27 25.9 23.32 25.98 23.39 26.09L23.3909 26.0914C23.4807 26.2312 23.59 26.4011 23.59 26.72C23.59 26.85 23.48 26.97 23.34 26.97Z" fill="#CA0B4A"/>
</svg>

<svg xmlns="http://www.w3.org/2000/svg" width="32" height="32" fill="none"><path fill="#533566" d="M15.466 9.975a.5.5 0 0 0-.412-.91L8.646 11.96H4.88a.5.5 0 0 0 0 1h3.899l6.275 2.845a.5.5 0 1 0 .412-.91l-5.434-2.464 5.434-2.456ZM4.36 24.48a.5.5 0 0 1 .5-.5h3.833l6.341-2.866a.5.5 0 0 1 .412.912l-5.434 2.455 5.434 2.464a.5.5 0 1 1-.412.91L8.692 24.98H4.86a.5.5 0 0 1-.5-.5Z"/><path fill="#F9C23C" d="M5.98 7.812a2.991 2.991 0 1 0-2-.007V29.49c0 .28.23.51.51.51h.99c.28 0 .51-.23.5-.51V7.812Z"/><path fill="#00A6ED" d="M29.99 9.83V7.08c-1.49 0-2.7 1.21-2.7 2.7v.19c0 .29-.24.53-.53.53-1.07 0-2.1-.33-2.97-.95l-.67-.47a8.514 8.514 0 0 0-8.41-.84l-1.52.68v7.11l1.52.68c2.76 1.23 5.95.91 8.41-.84l.67-.47a5.12 5.12 0 0 1 2.97-.95c.29 0 .53.24.53.53v.05c0 1.49 1.21 2.7 2.7 2.7v-2.75c0-1.19-.77-2.2-1.84-2.56 1.07-.39 1.84-1.4 1.84-2.59Z"/><path fill="#26EAFC" d="M17.87 12.39a4.67 4.67 0 0 0-2.83-4.29c-.11.04-.23.07-.34.12l-1.52.68v7.11l1.52.68c.05.02.09.03.14.05a4.638 4.638 0 0 0 3.03-4.35Z"/><path fill="#0074BA" d="M13.24 8.96c0-.4-.32-.72-.72-.72a.73.73 0 0 0-.72.72v6.98c0 .4.32.72.72.72.4 0 .72-.32.72-.72V8.96ZM19.6 8.87a.25.25 0 0 0-.5 0c0 .38-.116.556-.257.772l-.002.002c-.159.242-.34.522-.34 1.056s.181.814.34 1.056l.002.002c.141.216.257.393.257.772 0 .386-.118.566-.259.782v.001c-.159.24-.34.519-.34 1.047 0 .529.182.81.34 1.052.142.217.26.397.26.778a.25.25 0 0 0 .499 0c0-.529-.183-.81-.34-1.052-.143-.217-.26-.397-.26-.778 0-.38.116-.556.257-.771l.002-.003c.159-.242.34-.523.34-1.056 0-.528-.181-.806-.34-1.047v-.001c-.141-.216-.26-.396-.26-.782s.119-.566.26-.782c.159-.241.34-.52.34-1.048ZM21.71 9.68a.25.25 0 0 0-.5 0c0 .27-.08.393-.183.552l-.001.002c-.121.185-.266.408-.266.826s.144.64.264.826l.001.001c.104.16.185.286.185.563 0 .27-.08.392-.183.553l-.002.002c-.121.188-.265.412-.265.835 0 .418.144.64.264.826l.001.001c.104.16.185.286.185.563a.25.25 0 0 0 .5 0c0-.423-.144-.647-.265-.835l-.002-.002c-.104-.16-.183-.283-.183-.553 0-.277.081-.403.185-.563v-.001c.12-.186.265-.408.265-.826 0-.422-.144-.647-.265-.835l-.002-.002c-.104-.16-.183-.283-.183-.553 0-.27.08-.393.183-.552l.001-.001c.121-.186.266-.409.266-.827ZM23.34 10.2a.25.25 0 0 1 .25.25c0 .155-.026.28-.07.389-.04.103-.094.184-.134.245l-.005.005c-.074.112-.121.183-.121.351a.538.538 0 0 0 .123.36l.001.002c.09.135.206.309.206.628a1.033 1.033 0 0 1-.204.633l-.005.007c-.074.11-.121.182-.121.35a.538.538 0 0 0 .123.36l.001.002c.09.135.206.309.206.628a.25.25 0 0 1-.5 0c0-.168-.047-.24-.122-.35l-.003-.007c-.04-.06-.095-.14-.136-.244a1.033 1.033 0 0 1-.069-.389c0-.32.116-.493.206-.628l.001-.002a.538.538 0 0 0 .123-.36c0-.168-.047-.24-.122-.35l-.003-.007c-.04-.06-.095-.14-.136-.244a1.033 1.033 0 0 1-.069-.389c0-.32.116-.493.206-.628l.001-.002a.538.538 0 0 0 .123-.36.25.25 0 0 1 .25-.25Z"/><path fill="#F8312F" d="M29.99 22.13v-2.75c-1.49 0-2.7 1.21-2.7 2.7v.19c0 .29-.24.53-.53.53-1.07 0-2.1-.33-2.97-.95l-.67-.47a8.514 8.514 0 0 0-8.41-.84l-1.52.68v7.11l1.52.68c2.76 1.23 5.95.91 8.41-.84l.67-.47a5.12 5.12 0 0 1 2.97-.95c.29 0 .53.24.53.53v.02c0 1.49 1.21 2.7 2.7 2.7v-2.75c0-1.19-.77-2.2-1.84-2.56a2.702 2.702 0 0 0 1.84-2.56Z"/><path fill="#FF8687" d="M17.87 24.69a4.67 4.67 0 0 0-2.83-4.29c-.11.04-.23.07-.34.12l-1.52.68v7.11l1.52.68c.05.02.09.03.14.05a4.648 4.648 0 0 0 3.03-4.35Z"/><path fill="#212121" d="M14.67 10.74a.57.57 0 1 1 1.14 0v.76a.57.57 0 1 1-1.14 0v-.76ZM14.67 23.04a.57.57 0 1 1 1.14 0v.76a.57.57 0 1 1-1.14 0v-.76Z"/><path fill="#CA0B4A" d="M13.24 21.26c0-.4-.32-.72-.72-.72a.73.73 0 0 0-.72.72v6.98c0 .4.32.72.72.72.4 0 .72-.32.72-.72v-6.98ZM19.1 28.49c0 .14.11.25.25.25s.25-.12.25-.25c0-.53-.18-.81-.34-1.05-.15-.22-.26-.4-.26-.78s.11-.56.26-.78c.16-.24.34-.52.34-1.05s-.18-.81-.34-1.05c-.15-.22-.26-.4-.26-.78 0-.39.11-.56.26-.78.16-.24.34-.52.34-1.05 0-.14-.11-.25-.25-.25s-.25.11-.25.25c0 .373-.11.545-.242.751l-.018.029c-.16.24-.34.52-.34 1.05s.18.81.34 1.05c.15.22.26.4.26.78s-.11.56-.26.78c-.16.24-.34.52-.34 1.05s.18.81.34 1.05c.15.22.26.4.26.78ZM21.21 27.52c0 .14.11.25.25.25.13 0 .25-.11.25-.24 0-.42-.15-.65-.27-.83-.11-.16-.19-.29-.19-.56 0-.257.082-.387.176-.538l.014-.022c.12-.18.27-.41.27-.83s-.15-.65-.27-.83c-.11-.16-.19-.29-.19-.56 0-.26.077-.381.168-.525l.022-.035c.12-.18.27-.41.27-.83 0-.14-.11-.25-.25-.25s-.25.11-.25.25c0 .25-.077.37-.167.514l-.023.036c-.12.18-.27.41-.27.83s.15.65.27.83c.11.16.19.29.19.56 0 .257-.082.387-.176.538l-.014.022c-.12.18-.27.41-.27.83s.15.65.27.83c.11.16.19.29.19.56ZM23.34 26.97c-.14 0-.25-.11-.25-.25 0-.17-.05-.25-.12-.36v-.002c-.09-.14-.2-.31-.2-.628 0-.319.11-.489.199-.628l.001-.002c.07-.11.12-.19.12-.36 0-.17-.05-.25-.12-.36v-.001c-.09-.14-.2-.31-.2-.629s.11-.489.199-.628l.001-.002c.07-.11.12-.19.12-.36 0-.14.11-.25.25-.25s.25.11.25.25c0 .319-.11.489-.2.628v.002l-.01.014c-.064.102-.11.174-.11.346 0 .17.05.25.12.36v.001c.09.14.2.31.2.629 0 .32-.11.5-.2.63-.07.11-.12.19-.12.36 0 .17.05.25.12.36v.001c.09.14.2.31.2.629 0 .13-.11.25-.25.25Z"/></svg>
